X:31
T:Didans
R:sl-polska
H:efter August Bengtsson, Bredvassa, Loftahammar
A:Sm{\aa}land
B:SvL Sml 31
Z:id:hn-sp-31
M:3/4
L:1/16
K:D
D4 a2af g2ge | cAce f2fd e2A2 | A4 a2af g2ge | cAce f2fd e2A2 |
A2AB G2GA F2FG | E2EF GFGE F2D2 | A4 a2af g2ge | cAce e4 d4 :|
|: gagf efed cdcB | ABcd edcB A4 | gagf efed cdcB | ABcd edcB A4 |
DFAF EGAG F2D2 | DFAF EGAG F2D2 | gagf efed cdcB | ABcd e4 d4 :|

